X: 1843
T: Sûzinâk Peşrev
C: Tatyos Efendi
O: Turkey
F: http://compmusic.upf.edu/node/140
N: suzinak--pesrev--cenber----tatyos_efendi
N: makam= suzinak
N: form= pesrev
N: usul= cenber = 24/4
M: 24/4
L: 1/16
K: C _1/4B _7/8e ^f 
Q: 1/4=72
%%MIDI tuningsystem comma53
de dc B2 c2 d4 e2 fg  | fe d4 c2 de dc B4  | \
w:  1. HANE  |   | 
cd cB _7/8A4 Bc BA G4  | 
w:   | 
GG2_7/8A B2 c2 d2 cB d{g}f ed  | d6 B2 c2 Bc d4  | \
w:   |   | 
ef ed c4 fe ed e4  | 
w:   | 
de de f2 g2 gf ef ed c2  | df ed e2 g2 g{a}f2e fe ed  | 
w:   |   | 
d3/2c/ de fg a_b ag2f g4  | gf ed e2 f2 gf {g}e{f}d c4  | 
w:   |   | 
d2 e4 ed dc cB c4  | Bc de gf ed dc cB cd B_7/8A  | 
w:   |   | 
G3_7/8A Bc d2 ed c2 d2 e2  | fg fe d2 c2 de dc B4  | 
w:   |   | 
z2 e2 d2 c2 dc B^A B4  | z2 c2 B2 _7/8A2 Bc BA G4  | \
w:   |   | 
GG2_7/8A B2 c2 d2 cd e/d/e/f/ ed  | 
w:   | 
.d6 B2 c2 Bc .d4  | (3G2_7/8A2B2 (3c2B2c2 (3d2c2d2 e4  | \
w:   |  TESLİM  | 
(3d2^c2d2 (3e2d2e2 (3f2e2f2 g4  | 
w:   | 
d2 g4 fe de f4 ed  | cd e4 dc Bc B_7/8A G4  | \
w:   |   | 
d2 cd fe dc B3_7/8A BA AG  | 
w:   | 
G6 c2 Bc dB c4  | cd cB ^AB AB c8  | \
w:  2. HANEYE  |  2. HANE  | 
cd cB c2 e2 d3c c/B/c/d/ cB  | 
w:   | 
B6 ^A2 Bc BA B2 c2  | B4 c2 d2 c4 d2 e2  | \
w:   |   | 
d4 e2 f2 e2 d4 e2  | d^c _7/8B2 c2 d2 c4 d4  | 
w:   |   | 
z4 d2 e2 d4 ^c4  | d2 ^cd e2 de f2 ef g4  | \
w:   |   | 
z4 f2 g2 a6 _b2  | a2 _b2 a2 g2 ag fe de fg  | 
w:   |   | 
e2 f4 (3ede ag gf g4  | fg fg a2 _b2 a2 g2 f2 _3/4e2  | \
w:   |   | 
fg fe f2 ga g2 {a}gf ed c2  | 
w:   | 
df ed e2 g2 f2 e2 d2 c2  | de dc B4 cd cB c2 e2  | 
w:   |   | 
d2 c2 B2 _7/8A2 Bc BA G4  | GG2_7/8A B2 c2 d2 cd e/d/e/f/ ed  | 
w:   |   | 
d6 B2 c2 Bc d4  | (3G2_7/8A2B2 (3c2B2c2 (3d2c2d2 e4  | \
w:   |  TESLİM  | 
(3d2^c2d2 (3e2d2e2 (3f2e2f2 g4  | 
w:   | 
d2 g4 fe de f4 ed  | cd e4 dc Bc B_7/8A G4  | \
w:   |   | 
d2 cd fe dc B3_7/8A BA AG  | 
w:   | 
G6 gf =e2 f2 g2 a2  | f4 g4 g2 a2 g2 f2  | \
w:  3. HANEYE  |  3. HANE  | 
g4 a4 a2 c'2 _2/4b2 a2  | a3g f2 g2 f2 g2 a_b ag  | 
w:   |   | 
g6 gf f=e ef g4  | z4 f2 g2 a6 _b2  | \
w:   |   | 
a2 _b2 a2 g2 fg f_e d2 c2  | 
w:   | 
d3e f2 g2 f2 g2 a2 _b2  | g2 c'4 _ba a6 b2  | \
w:   |   | 
a2 _bc' ba g2 f2 g2 a4  | 
w:   | 
_bc' ba b2 c'2 ab ag a2 b2  | ga gf g2 a2 f3e d4  | 
w:   |   | 
ed c2 d2 e2 d2 _ba g2 a2  | f3e fe ed d8  | \
w:   |   | 
cB A2 B2 c2 d2 ef ed c2  | 
w:   | 
de dc B4 G3A B2 c2  | BA Bc d2 =e2 de cd Bc _7/8AB  | 
w:   |   | 
GG2_7/8A B2 c2 d2 cd e/d/e/f/ ed  | \
w:   | 
d6 B2 c2 Bc d4  | (3G2_7/8A2B2 (3c2B2c2 (3d2c2d2 e4  | 
w:   |  TESLİM  | 
(3d2^c2d2 (3e2d2e2 (3f2e2f2 g4  | \
w:   | 
d2 g4 fe de f4 ed  | cd e4 dc Bc B_7/8A G4  | 
w:   |   | 
d2 cd fe dc B3_7/8A BA AG  | G6 D2 E2 F2 G4  | \
w:   |  4. HANEYE  | 
G4 G2 _7/8A2 G2 A2 G2 F2  | 
w:  4. HANE  | 
G4 _7/8A2 G2 A4 B2 A2  | B6 c2 d2 c2 B2 _7/8A2  | \
w:   |   | 
G4 _7/8A2 B2 A2 B2 A2 G2  | (3G2F2E2 F2 G2 F2 G2 B2 _7/8AG  | 
w:   |   | 
G6 _7/8A2 AG GF G4  | G4 _7/8A2 G2 A4 B2 A2  | \
w:   |   | 
B2 c2 d2 e2 d2 c2 B2 _7/8A2  | 
w:   | 
G3c B2 c2 d8  | d2 B2 c2 d2 e6 f2  | \
w:   |   | 
e3d ^c2 d2 c2 d2 ef ed  | 
w:   | 
d6 e2 ed d^c d4  | ef ed e2 f2 g3f e2 d2  | \
w:   |   | 
e6 f2 gf ed c4  | 
w:   | 
de dc B4 z2 G_7/8A B2 c2  | d2 e2 d2 c2 d2 c2 B2 _7/8A2  | \
w:   |   | 
GG2_7/8A B2 c2 d2 cd e/d/e/f/ ed  | 
w:   | 
d6 B2 c2 Bc d4  | (3G2_7/8A2B2 (3c2B2c2 (3d2c2d2 e4  | \
w:   |  TESLİM  | 
(3d2^c2d2 (3e2d2e2 (3f2e2f2 g4  | 
w:   | 
d2 g4 fe de f4 ed  | cd e4 dc Bc B_7/8A G4  | \
w:   |   | 
d2 cd fe dc B3_7/8A BA AG  | 
w:   | 
G6 z2 z8  | |


